X:93
T:King Billy's March
B:NFID.110b
093king_b
S:SD
L:1/8
M:6/8
R:jig
Q:320
K:A=G
(3Bcd|: eAA BAA|eAA Bcd|eAA fed|BGG Bcd|
eAA BAA|eAA Bcd|faf gfe|1 dBG Bcd:|2 dBG BdB||
A3 a3|ged e2A|A2A a2B|BAG BdB|
A2A a2a|gef g2f|gba g2e|dBG BdB:|

%%%

